src/32x32/places/folder-gruvbox-material-yellow-onedrive.svg

<svg xmlns="http://www.w3.org/2000/svg" width="32" height="32" version="1">
 <rect style="opacity:0.2" width="28" height="18" x="2" y="11" rx="1.4" ry="1.4"/>
 <path style="fill:#b47109" d="M 2,22.6 C 2,23.376 2.6244,24 3.4,24 H 28.6 C 29.376,24 30,23.376 30,22.6 V 7.4 C 30,6.6244 29.376,6 28.6,6 H 16 C 13.9,6 13.2,3 11.1,3 H 3.4 C 2.6244,3 2,3.6244 2,4.4"/>
 <rect style="opacity:0.2" width="28" height="18" x="2" y="9" rx="1.4" ry="1.4"/>
 <rect style="fill:#f9eabf" width="24" height="11" x="4" y="8" rx="1.4" ry="1.4"/>
 <rect style="fill:#d8a657" width="28" height="18" x="2" y="10" rx="1.4" ry="1.4"/>
 <path style="opacity:0.1;fill:#f9eabf" d="M 3.4004,3 C 2.6248,3 2,3.6248 2,4.4004 V 5.4004 C 2,4.6248 2.6248,4 3.4004,4 H 11.1 C 13.2,4 13.9,7 16,7 H 28.6 C 29.375,7 30,7.6248 30,8.4004 V 7.4004 C 30,6.6248 29.375,6 28.6,6 H 16 C 13.9,6 13.2,3 11.1,3 Z"/>
 <path style="fill:#574833" d="M 17,14.000047 A 3,3 0 0 0 14.041016,16.535203 2.5,2.5 0 0 0 12.5,16.000047 2.5,2.5 0 0 0 10.044922,18.043016 2.5,2.5 0 0 0 8,20.500047 a 2.5,2.5 0 0 0 2.5,2.5 2.5,2.5 0 0 0 0.658203,-0.0918 C 11.064537,22.619495 11,22.318204 11,22.000047 c 0,-1.263279 0.901705,-2.150952 2.017578,-2.589844 0.05097,-1.877963 1.593005,-3.410156 3.482422,-3.410156 1.388328,9.91e-4 2.405625,0.946566 2.966797,2.146484 0.118955,-0.02267 0.231371,-0.06772 0.345703,-0.103515 A 3,3 0 0 0 20,17.000047 a 3,3 0 0 0 -3,-3 z m -0.5,3 c -1.380712,0 -2.5,1.119288 -2.5,2.5 0.0012,0.168734 0.01957,0.33691 0.05469,0.501953 C 14.03647,20.0011 14.01824,20.0004 14,20 c -1.104569,0 -2,0.89543 -2,2 0,1.104569 0.895431,2 2,2 h 8.5 C 23.328427,24 24,23.328427 24,22.5 24,21.671573 23.328427,21 22.5,21 c -0.171876,8.57e-4 -0.342325,0.03125 -0.503906,0.08984 0.002,-0.02991 0.0033,-0.05987 0.0039,-0.08984 0,-1.10457 -0.895431,-2 -2,-2 -0.35591,7.81e-4 -0.705164,0.09652 -1.011719,0.277344 C 18.873057,17.98879 17.793742,17.00097 16.5,17.000047 Z"/>
</svg>

<?xml version="1.0" encoding="UTF-8"?>
<svg width="32" height="32" version="1" xmlns="http://www.w3.org/2000/svg">
 <rect x="2" y="11" width="28" height="18" rx="1.4" ry="1.4" opacity=".2"/>
 <path d="m2 22.6c0 0.776 0.6244 1.4 1.4 1.4h25.2c0.776 0 1.4-0.624 1.4-1.4v-15.2c0-0.7756-0.624-1.4-1.4-1.4h-12.6c-2.1 0-2.8-3-4.9-3h-7.7c-0.7756 0-1.4 0.6244-1.4 1.4" fill="#b47109"/>
 <rect x="2" y="9" width="28" height="18" rx="1.4" ry="1.4" opacity=".2"/>
 <rect x="4" y="8" width="24" height="11" rx="1.4" ry="1.4" fill="#f9eabf"/>
 <rect x="2" y="10" width="28" height="18" rx="1.4" ry="1.4" fill="#d8a657"/>
 <path d="m3.4004 3c-0.7756 0-1.4004 0.6248-1.4004 1.4004v1c0-0.7756 0.6248-1.4004 1.4004-1.4004h7.6996c2.1 0 2.8 3 4.9 3h12.6c0.775 0 1.4 0.6248 1.4 1.4004v-1c0-0.7756-0.625-1.4004-1.4-1.4004h-12.6c-2.1 0-2.8-3-4.9-3z" fill="#f9eabf" opacity=".1"/>
 <path d="m17 14a3 3 0 0 0-2.959 2.5352 2.5 2.5 0 0 0-1.541-0.53516 2.5 2.5 0 0 0-2.4551 2.043 2.5 2.5 0 0 0-2.0449 2.457 2.5 2.5 0 0 0 2.5 2.5 2.5 2.5 0 0 0 0.6582-0.0918c-0.093666-0.28875-0.1582-0.59004-0.1582-0.9082 0-1.2633 0.9017-2.151 2.0176-2.5898 0.05097-1.878 1.593-3.4102 3.4824-3.4102 1.3883 9.91e-4 2.4056 0.94657 2.9668 2.1465 0.11896-0.02267 0.23137-0.06772 0.3457-0.10352a3 3 0 0 0 0.1875-1.043 3 3 0 0 0-3-3zm-0.5 3c-1.3807 0-2.5 1.1193-2.5 2.5 0.0012 0.16873 0.01957 0.33691 0.05469 0.50195-0.01822-9e-4 -0.03645-0.0016-0.05469-2e-3 -1.1046 0-2 0.89543-2 2 0 1.1046 0.89543 2 2 2h8.5c0.82843 0 1.5-0.67157 1.5-1.5s-0.67157-1.5-1.5-1.5c-0.17188 8.57e-4 -0.34232 0.03125-0.50391 0.08984 2e-3 -0.02991 0.0033-0.05987 0.0039-0.08984 0-1.1046-0.89543-2-2-2-0.35591 7.81e-4 -0.70516 0.09652-1.0117 0.27734-0.11522-1.2886-1.1945-2.2764-2.4883-2.2773z" fill="#574833"/>
</svg>
